Pods/ProtonCore-UIFoundations/libraries/UIFoundations/Sources/Assets.xcassets/Images/IconSet/ic-arrows-up-and-left.imageset/ic-arrows-up-and-left.svg

<svg width="24" height="24" viewBox="0 0 24 24" fill="none" xmlns="http://www.w3.org/2000/svg">
<path fill-rule="evenodd" clip-rule="evenodd" d="M8.48988 11.2497L12.5289 7.28158C12.8244 6.99128 12.8272 6.51783 12.5351 6.22409C12.2431 5.93035 11.7668 5.92757 11.4714 6.21787L6.34415 11.2551C5.92702 11.6649 5.92703 12.3345 6.34415 12.7443L11.4714 17.7816C11.7668 18.0719 12.2431 18.0691 12.5351 17.7754C12.8272 17.4816 12.8244 17.0082 12.5289 16.7179L8.48988 12.7497H18.7456C19.9883 12.7497 20.9956 13.7571 20.9956 14.9997L20.9956 18.7497C20.9956 19.1639 21.3314 19.4997 21.7456 19.4997C22.1599 19.4997 22.4956 19.1639 22.4956 18.7497L22.4956 14.9997C22.4956 12.9287 20.8167 11.2497 18.7456 11.2497H8.48988ZM3.20243 11.9997L8.02759 7.28289C8.3238 6.99333 8.3278 6.51989 8.03651 6.22542C7.74522 5.93096 7.26896 5.92699 6.97274 6.21656L1.82034 11.2533C1.40071 11.6635 1.40071 12.336 1.82034 12.7462L6.97274 17.7829C7.26896 18.0725 7.74522 18.0685 8.03651 17.774C8.3278 17.4796 8.3238 17.0061 8.02759 16.7166L3.20243 11.9997Z" fill="#0C0C14"/>
</svg>

<svg xmlns="http://www.w3.org/2000/svg" width="24" height="24" viewBox="0 0 24 24">
  <g class="ic-arrows-up-and-left">
    <path fill-rule="evenodd" d="m8.488 11.25 4.04-3.968a.745.745 0 0 0 .005-1.058.755.755 0 0 0-1.063-.006l-5.128 5.037a1.043 1.043 0 0 0 0 1.49l5.128 5.037a.755.755 0 0 0 1.063-.007.745.745 0 0 0-.006-1.057L8.488 12.75h10.256a2.25 2.25 0 0 1 2.25 2.25v3.75a.75.75 0 0 0 1.5 0V15a3.75 3.75 0 0 0-3.75-3.75H8.488ZM3.201 12l4.825-4.717c.296-.29.3-.763.009-1.058a.755.755 0 0 0-1.064-.008l-5.152 5.036c-.42.41-.42 1.083 0 1.493l5.152 5.037a.755.755 0 0 0 1.064-.009.745.745 0 0 0-.01-1.057L3.202 12Z" class="Icon"/>
  </g>
</svg>
